src/css/svg/mapboxgl-ctrl-geolocate.svg

<svg xmlns="http://www.w3.org/2000/svg" viewBox="0 0 20 20"><path d="M10 4C9 4 9 5 9 5v.1A5 5 0 0 0 5.1 9H5s-1 0-1 1 1 1 1 1h.1A5 5 0 0 0 9 14.9v.1s0 1 1 1 1-1 1-1v-.1a5 5 0 0 0 3.9-3.9h.1s1 0 1-1-1-1-1-1h-.1A5 5 0 0 0 11 5.1V5s0-1-1-1zm0 2.5a3.5 3.5 0 1 1 0 7 3.5 3.5 0 1 1 0-7zm0 1.8A1.8 1.8 0 0 0 8.3 10a1.8 1.8 0 0 0 1.7 1.8 1.8 1.8 0 0 0 1.8-1.8A1.8 1.8 0 0 0 10 8.3z"/></svg>

<svg viewBox='0 0 20 20' xmlns='http://www.w3.org/2000/svg'>
	<path d='M10 4C9 4 9 5 9 5L9 5.1A5 5 0 0 0 5.1 9L5 9C5 9 4 9 4 10 4 11 5 11 5 11L5.1 11A5 5 0 0 0 9 14.9L9 15C9 15 9 16 10 16 11 16 11 15 11 15L11 14.9A5 5 0 0 0 14.9 11L15 11C15 11 16 11 16 10 16 9 15 9 15 9L14.9 9A5 5 0 0 0 11 5.1L11 5C11 5 11 4 10 4zM10 6.5A3.5 3.5 0 0 1 13.5 10 3.5 3.5 0 0 1 10 13.5 3.5 3.5 0 0 1 6.5 10 3.5 3.5 0 0 1 10 6.5zM10 8.3A1.8 1.8 0 0 0 8.3 10 1.8 1.8 0 0 0 10 11.8 1.8 1.8 0 0 0 11.8 10 1.8 1.8 0 0 0 10 8.3z' />
</svg>
